svgs/sharp-regular/sailboat.svg

<svg xmlns="http://www.w3.org/2000/svg" viewBox="0 0 576 512"><!--! Font Awesome Pro 6.6.0 by @fontawesome - https://fontawesome.com License - https://fontawesome.com/license (Commercial License) Copyright 2024 Fonticons, Inc. --><path d="M256 320l272 0L256 0l0 320zM56 352L0 352l28.8 48L96 512l384 0 67.2-112L576 352l-56 0L56 352zm28.8 48l406.4 0-38.4 64-329.6 0L84.8 400zM224 64L48 320l176 0 0-256z"/></svg>

<svg xmlns="http://www.w3.org/2000/svg" viewBox="0 0 576 512"><!--! Font Awesome Pro 6.4.2 by @fontawesome - https://fontawesome.com License - https://fontawesome.com/license (Commercial License) Copyright 2023 Fonticons, Inc. --><path d="M256 320H528L256 0V320zM56 352H0l28.8 48L96 512H480l67.2-112L576 352H520 56zm28.8 48H491.2l-38.4 64H123.2L84.8 400zM224 64L48 320H224V64z"/></svg>
